dist/icons/printer.svg

<?xml version="1.0" encoding="utf-8"?>
<!-- Generated by IcoMoon.io -->
<!DOCTYPE svg PUBLIC "-//W3C//DTD SVG 1.1//EN" "http://www.w3.org/Graphics/SVG/1.1/DTD/svg11.dtd">
<svg version="1.1" xmlns="http://www.w3.org/2000/svg" xmlns:xlink="http://www.w3.org/1999/xlink" width="32" height="32" viewBox="0 0 32 32">
<path d="M8 2h16v4h-16zM30 8h-28c-1.1 0-2 0.9-2 2v10c0 1.1 0.9 2 2 2h6v8h16v-8h6c1.1 0 2-0.9 2-2v-10c0-1.1-0.9-2-2-2zM22 28h-12v-10h12v10zM30.45 11c0 0.801-0.649 1.45-1.45 1.45s-1.45-0.649-1.45-1.45 0.649-1.45 1.45-1.45c0.801 0 1.45 0.649 1.45 1.45z"></path>
</svg>

<svg xmlns="http://www.w3.org/2000/svg" width="32" height="32" viewBox="0 0 32 32"><path d="M8 2h16v4H8zm22 6H2c-1.1 0-2 .9-2 2v10c0 1.1.9 2 2 2h6v8h16v-8h6c1.1 0 2-.9 2-2V10c0-1.1-.9-2-2-2zm-8 20H10V18h12v10zm8.45-17c0 .8-.65 1.45-1.45 1.45s-1.45-.65-1.45-1.45.65-1.45 1.45-1.45c.8 0 1.45.65 1.45 1.45z"/></svg>
